packages/icons/svg/Fill/heart.svg

<svg width="24" height="24" viewBox="0 0 24 24" fill="none" xmlns="http://www.w3.org/2000/svg">
<g id="Icon/Fill/heart">
<path id="Mask" fill-rule="evenodd" clip-rule="evenodd" d="M12 21C11.734 21 11.48 20.895 11.292 20.706L3.52505 12.926C1.48905 10.886 1.48905 7.567 3.52505 5.527C4.50805 4.543 5.82105 4 7.22005 4C8.61905 4 9.93205 4.543 10.915 5.527L12 6.614L13.084 5.528C14.068 4.543 15.381 4 16.78 4C18.179 4 19.492 4.543 20.475 5.527C22.511 7.567 22.511 10.886 20.476 12.926L12.708 20.707C12.52 20.895 12.266 21 12 21Z" fill="#000000"/>
</g>
</svg>

<svg fill="none" height="24" viewBox="0 0 24 24" width="24" xmlns="http://www.w3.org/2000/svg"><path clip-rule="evenodd" d="m12 21c-.266 0-.52-.105-.708-.294l-7.76701-7.78c-2.036-2.04-2.036-5.359 0-7.399.983-.984 2.296-1.527 3.695-1.527s2.712.543 3.69501 1.527l1.085 1.087 1.084-1.086c.984-.985 2.297-1.528 3.696-1.528s2.712.543 3.695 1.527c2.036 2.04 2.036 5.359.001 7.399l-7.768 7.781c-.188.188-.442.293-.708.293" fill="#6b7280" fill-rule="evenodd"/></svg>
